X: 127
T: Why Do A Preacher Like Chicken So
C:Garry Harrison
B: canberra pickers and fiddlers
B: old time tunes update
B: tunes
M:C|
L:1/8
Q: 1/4=100
K:C
V:1 
[G2c2][Gc][Ec] [G2c2][Gc]([Ec]|G)AGE D(C[CE])F| [G2c2][Gc][Ec] [G2c2] A-c-|"*"cdcc AG2E|
[G2c2][Gc][Ec] [G2c2][Gc]([Ec]|G)AGE D[CE]CA,|G,B,DE GABd| eg-e(d [c4e4]):||
(g2+slide+e'2) e'-d'3|c'3d' (c'2e2|g)-^fga g-fed|B-de-^f [B4g4]|
(eg+slide+e'2)  e'-d'3|c'3d' (c'2e2|g)-^fga g-fed|c-Bcd [E2c2||
[DB]-[Dd]-|[Dd]edc +slide+B2cd|ecdc AG[G2c2]|A-Bcd ecdc|AcAG ECCA,|
G,A,CD EGAB|[E2c2][Ec][Ec] [E2c2][DA]-[DB]-|[DB]cdc BAGE|D2 (C2[C2E2])||
% abcbook-tune_id 67a7d9ec8ca55d5320f0d1ff
% abcbook-tune_composer_id 
% abcbook-link-0 https://www.youtube.com/watch?v=9u1Al7WvKk4
% abcbook-link-title-0 Craig Judelman teaches Why Do A Preacher Like Chicken So?
% abcbook-link-start-at-0 1425
% abcbook-link-end-at-0 1605
% abcbook-boost 0
% abcbook-difficulty 0
% abcbook-tags old time tunes
% abcbook-tablature 
% abcbook-transpose 
% abcbook-tuning GDAE
% abcbook-lastupdated 1739101637740
% abcbook-src-url 
% abcbook-soundfonts 
% abcbook-repeats 1


